svg/fluentui-system-icons/ic_fluent_dual_screen_group_24_regular.svg

<svg width="24" height="24" viewBox="0 0 24 24" fill="none" xmlns="http://www.w3.org/2000/svg">
<path d="M12.7554 4.00195L12.7548 4.00395L20.253 4.00439C21.2195 4.00439 22.003 4.78789 22.003 5.75439V18.2495C22.003 19.216 21.2195 19.9995 20.253 19.9995H11.2554L11.2548 19.997L3.75781 19.9971C2.79131 19.9971 2.00781 19.2136 2.00781 18.2471V5.75195C2.00781 4.78545 2.79131 4.00195 3.75781 4.00195H12.7554ZM20.253 5.50439H12.7554V18.4995H20.253C20.391 18.4995 20.503 18.3876 20.503 18.2495V5.75439C20.503 5.61632 20.391 5.50439 20.253 5.50439ZM11.2554 5.50195H3.75781C3.61974 5.50195 3.50781 5.61388 3.50781 5.75195V18.2471C3.50781 18.3851 3.61974 18.4971 3.75781 18.4971H11.2554V5.50195Z" fill="#212121"/>
</svg>

<svg xmlns="http://www.w3.org/2000/svg" width="24" height="24"><path d="M12.755 4.002v.002h7.498c.966 0 1.75.784 1.75 1.75V18.25a1.75 1.75 0 0 1-1.75 1.75h-8.998v-.002H3.758a1.75 1.75 0 0 1-1.75-1.75V5.752c0-.967.783-1.75 1.75-1.75h8.997Zm7.498 1.502h-7.498V18.5h7.498a.25.25 0 0 0 .25-.25V5.755a.25.25 0 0 0-.25-.25Zm-8.998-.002H3.758a.25.25 0 0 0-.25.25v12.495c0 .138.112.25.25.25h7.497V5.502Z"/></svg>
